X:20011
T:Top of Cork Road
T:Father O'Flynn
R:Jig
C:Trad. O'Neill's
O:Ireland
M:6/8
L:1/8
Q:1/8=220
K:D
d|"D"dAF DFA|"G"Bed "A"cBA|"Bm"d2d "Em"efg|"Bm"fdf "A"ecA|
"D"dAF DFA|"G"Bed "A"cBA|"Bm"d2d "Em"efg|"Bm"fdd d2:|
|:g|"Bm"fdf "D"fga|"A"ecA "A"ABc|"Bm"d2d "Bm"fed|"A"cAA "A"A2c|
"G"B2B Bcd|"D"AFD DFA|"Bm"d2d "Em"efg|"Bm"fdd "G"d2:|

